X: 24596
T: Lynsey's
R: jig
M: 6/8
K: Bminor
d|:cFc dFd|cFc cde|edc d>cB|c/d/ef fed|
cFc dFd|e2e c/d/ef|g2g fdB|1 e3 edB:|2 b3 bfd||
|:B3 Bdf|bag f2d|e2g fdB|e2d c3|
d2c Bdf|bag f2d|e2g fdB|1 b3 bfd:|2 e3 edB||

